material/.icons/material/chevron-right-box.svg

<svg xmlns="http://www.w3.org/2000/svg" viewBox="0 0 24 24"><path d="M19 3H5a2 2 0 00-2 2v14a2 2 0 002 2h14c1.11 0 2-.89 2-2V5a2 2 0 00-2-2M9.71 18l-1.42-1.41L12.88 12 8.29 7.41 9.71 6l6 6-6 6z"/></svg>

<?xml version="1.0" encoding="UTF-8"?><!DOCTYPE svg PUBLIC "-//W3C//DTD SVG 1.1//EN" "http://www.w3.org/Graphics/SVG/1.1/DTD/svg11.dtd"><svg xmlns="http://www.w3.org/2000/svg" xmlns:xlink="http://www.w3.org/1999/xlink" version="1.1" id="mdi-chevron-right-box" width="24" height="24" viewBox="0 0 24 24"><path d="M19,3H5A2,2 0 0,0 3,5V19C3,20.11 3.9,21 5,21H19C20.11,21 21,20.11 21,19V5A2,2 0 0,0 19,3M9.71,18L8.29,16.59L12.88,12L8.29,7.41L9.71,6L15.71,12L9.71,18Z" /></svg>
